X:149
T:Oyster Girl. RHu.145
S:R.Hughes MS,1823,Whitchurch,Shrops.
A:Whitchurch, Shropshire
Z:Tony Weatherall 2006
M:6/8
L:1/8
Q:3/8=120
R:Jig
K:G
d|ded B2G|A2FD2D|(GA)B (dc)B|(B3A2) d|
ded B2G|g2ec2 e|d2B (dc)A|G3-G2||
B|BcB BAB|B2e B2_B|A2A AB^c|d3-d2d|
ded B2G|g2ec2e|(ed)B (dc)A|G3G2|]

